src/Pure-Dark/16/symbolic/status/process-error-symbolic.svg

<?xml version="1.0" encoding="UTF-8" standalone="no"?>
<svg
   version="1.1"
   viewBox="0 0 16 16"
   id="svg1"
   sodipodi:docname="process-error-symbolic.svg"
   inkscape:version="1.4.2 (ebf0e940d0, 2025-05-08)"
   xmlns:inkscape="http://www.inkscape.org/namespaces/inkscape"
   xmlns:sodipodi="http://sodipodi.sourceforge.net/DTD/sodipodi-0.dtd"
   xmlns="http://www.w3.org/2000/svg"
   xmlns:svg="http://www.w3.org/2000/svg">
  <defs
     id="defs1">
     <style
        id="current-color-scheme"
        type="text/css">
        .ColorScheme-Text { color:#f2f2f2; }
        .ColorScheme-NeutralText { color:#f67400; }
        .ColorScheme-PositiveText { color:#37c837; }
        .ColorScheme-NegativeText { color:#f44336; }
        .ColorScheme-Highlight { color:#3daee9; }
     </style>
  </defs>
  <sodipodi:namedview
     id="namedview1"
     pagecolor="#ffffff"
     bordercolor="#000000"
     borderopacity="0.25"
     inkscape:showpageshadow="2"
     inkscape:pageopacity="0.0"
     inkscape:pagecheckerboard="0"
     inkscape:deskcolor="#d1d1d1"
     inkscape:zoom="49.6875"
     inkscape:cx="8"
     inkscape:cy="8"
     inkscape:window-width="1920"
     inkscape:window-height="1010"
     inkscape:window-x="0"
     inkscape:window-y="0"
     inkscape:window-maximized="1"
     inkscape:current-layer="svg1" />
  <path
     id="path1"
     style="fill:currentColor"
     class="ColorScheme-NegativeText error"
     d="M 8.0019531 1 A 7 7 0 0 0 8.0019531 15 A 7 7 0 0 0 8.0019531 1 z M 7.0019531 3 L 9.0019531 3 L 9.0019531 7 L 8.5019531 10 L 7.5019531 10 L 7.0019531 7 L 7.0019531 3 z M 8.0019531 11 A 1 1 0 0 1 8.0019531 13 A 1 1 0 0 1 8.0019531 11 z " />
</svg>

<svg version="1.1" viewBox="0 0 16 16" xmlns="http://www.w3.org/2000/svg">
 <path class="error" d="m8.0013 1a7 7 0 1 0 0 14 7 7 0 0 0 0-14zm-1 2h2v4l-0.5 3h-1l-0.5-3zm1 8a1 1 0 0 1 0 2 1 1 0 0 1 0-2z" color="#000000" fill="#ef2929"/>
</svg>
